SVG_Azure_Grouped/Generic/Ebook.svg

<?xml version="1.0" encoding="UTF-8" standalone="no"?>
<!-- Generated by Microsoft Visio, SVG Export Ebook.svg Page-1 -->

<svg
   xmlns:dc="http://purl.org/dc/elements/1.1/"
   xmlns:cc="http://creativecommons.org/ns#"
   xmlns:rdf="http://www.w3.org/1999/02/22-rdf-syntax-ns#"
   xmlns:svg="http://www.w3.org/2000/svg"
   xmlns="http://www.w3.org/2000/svg"
   xmlns:sodipodi="http://sodipodi.sourceforge.net/DTD/sodipodi-0.dtd"
   xmlns:inkscape="http://www.inkscape.org/namespaces/inkscape"
   width="0.78736013in"
   height="0.66925567in"
   viewBox="0 0 56.689997 48.186479"
   xml:space="preserve"
   class="st6"
   version="1.1"
   id="svg49"
   sodipodi:docname="Ebook.svg"
   style="font-size:12px;overflow:visible;color-interpolation-filters:sRGB;fill:none;fill-rule:evenodd;stroke-linecap:square;stroke-miterlimit:3"
   inkscape:version="0.92.5 (2060ec1f9f, 2020-04-08)"><metadata
   id="metadata55"><rdf:RDF><cc:Work
       rdf:about=""><dc:format>image/svg+xml</dc:format><dc:type
         rdf:resource="http://purl.org/dc/dcmitype/StillImage" /></cc:Work></rdf:RDF></metadata><defs
   id="defs53" /><sodipodi:namedview
   pagecolor="#ffffff"
   bordercolor="#666666"
   borderopacity="1"
   objecttolerance="10"
   gridtolerance="10"
   guidetolerance="10"
   inkscape:pageopacity="0"
   inkscape:pageshadow="2"
   inkscape:window-width="640"
   inkscape:window-height="480"
   id="namedview51"
   showgrid="false"
   inkscape:zoom="1.8741153"
   inkscape:cx="37.795224"
   inkscape:cy="17.602588"
   inkscape:window-x="0"
   inkscape:window-y="0"
   inkscape:window-maximized="0"
   inkscape:current-layer="svg49" />
	<style
   type="text/css"
   id="style2">
	<![CDATA[
		.st1 {fill:#0072c6;stroke:none;stroke-linecap:butt;stroke-width:12.24}
		.st2 {fill:#e5e5e5;stroke:none;stroke-linecap:butt;stroke-width:12.24}
		.st3 {fill:#7a7a7a;stroke:none;stroke-linecap:butt;stroke-width:12.24}
		.st4 {fill:#ffffff;fill-opacity:0.2;stroke:none;stroke-linecap:butt;stroke-width:12.24}
		.st5 {fill:#231f20;fill-opacity:0.4;stroke:none;stroke-linecap:butt;stroke-width:12.24}
		.st6 {fill:none;fill-rule:evenodd;font-size:12px;overflow:visible;stroke-linecap:square;stroke-miterlimit:3}
	]]>
	</style>

	<g
   id="g47"
   transform="translate(-12.239999,-12.23783)">
		<title
   id="title4">Page-1</title>
		<g
   id="group16637-1"
   transform="translate(12.24,-34.0157)">
			<title
   id="title6">Ebook.16637</title>
			<g
   id="group16638-2">
				<title
   id="title8">g18</title>
				<g
   id="shape16639-3">
					<title
   id="title10">path4</title>
					<path
   d="m 0,49.85 v 40.88 a 1.20623,1.23879 -180 0 0 1.21,1.24 h 15.68 c 4.77,0 6.43,1.31 6.98,2.02 0.22,0.29 0.56,0.45 0.93,0.45 h 7.1 c 0.36,0 0.7,-0.16 0.93,-0.45 0.55,-0.71 2.2,-2.02 6.98,-2.02 h 15.68 a 1.20623,1.23879 -180 0 0 1.2,-1.24 V 49.85 a 1.20623,1.23879 -180 0 0 -1.2,-1.24 H 1.21 A 1.20623,1.23879 -180 0 0 0,49.85 Z"
   class="st1"
   id="path12"
   inkscape:connector-curvature="0"
   style="fill:#0072c6;stroke:none;stroke-width:12.23999977;stroke-linecap:butt" />
				</g>
				<g
   id="shape16640-5"
   transform="translate(4.82493,-6.19396)">
					<title
   id="title15">path6</title>
					<rect
   x="0"
   y="58.519798"
   width="47.043098"
   height="35.9249"
   class="st2"
   id="rect17"
   style="fill:#e5e5e5;stroke:none;stroke-width:12.23999977;stroke-linecap:butt" />
				</g>
				<g
   id="shape16641-7"
   transform="translate(2.41246,-5.91647)">
					<title
   id="title20">path8</title>
					<path
   d="m 51.44,57.22 c -0.24,-0.21 -5.92,-5.05 -14.48,-5.05 -6.86,0 -9.92,3.78 -11.03,5.68 -1.1,-1.9 -4.17,-5.68 -11.02,-5.68 -8.56,0 -14.24,4.84 -14.48,5.05 L 0,57.59 V 94.44 H 51.87 V 57.59 Z"
   class="st3"
   id="path22"
   inkscape:connector-curvature="0"
   style="fill:#7a7a7a;stroke:none;stroke-width:12.23999977;stroke-linecap:butt" />
				</g>
				<g
   id="shape16642-9"
   transform="translate(3.6187,-6.19396)">
					<title
   id="title25">path10</title>
					<path
   d="M 13.84,53.69 C 5.54,53.69 0,58.45 0,58.45 v 34.76 c 0,0 7.44,-1.55 13.92,-1.55 5.22,0 10.45,2.78 10.45,2.78 V 59.62 c 0,0 -2.23,-5.93 -10.53,-5.93 z m 21.78,0 c 8.3,0 13.84,4.76 13.84,4.76 v 34.76 c 0,0 -7.45,-1.55 -13.93,-1.55 -5.22,0 -10.44,2.78 -10.44,2.78 V 59.62 c 0,0 2.22,-5.93 10.53,-5.93 z"
   class="st2"
   id="path27"
   inkscape:connector-curvature="0"
   style="fill:#e5e5e5;stroke:none;stroke-width:12.23999977;stroke-linecap:butt" />
				</g>
				<g
   id="shape16643-11"
   transform="translate(4.82493,-8.11904)">
					<title
   id="title30">path12</title>
					<path
   d="M 9.65,57.06 C 4.73,57.77 1.18,60.11 0,60.98 v 32.66 c 1.99,-0.36 5.75,-0.96 9.65,-1.19 z m 25.33,-0.2 c -0.14,0 -0.29,-0.01 -0.43,-0.01 -6.53,0 -8.79,4.03 -9.22,4.95 v 32.64 c 2.04,-0.86 5.56,-2.09 9.13,-2.09 0.17,0 0.35,0.01 0.52,0.01 z"
   class="st4"
   id="path32"
   inkscape:connector-curvature="0"
   style="fill:#ffffff;fill-opacity:0.2;stroke:none;stroke-width:12.23999977;stroke-linecap:butt" />
				</g>
				<g
   id="shape16644-13"
   transform="translate(6.03116,-12.6617)">
					<title
   id="title35">path14</title>
					<path
   d="m 0,67.75 a 22.9281,23.5469 0 0 1 11.29,-2.57 c 3.76,0.14 6.31,1.42 8.01,2.83 v 1.66 C 17.83,68.17 15.33,66.57 11.29,66.41 6.26,66.22 2.26,67.92 0,69.18 Z m 0,4.95 a 22.9281,23.5469 0 0 1 11.29,-2.57 c 3.76,0.15 6.31,1.42 8.01,2.83 v 1.66 C 17.83,73.13 15.33,71.53 11.29,71.37 6.26,71.17 2.26,72.87 0,74.14 Z m 0,4.96 a 22.9281,23.5469 0 0 1 11.29,-2.57 c 3.76,0.14 6.31,1.42 8.01,2.83 v 1.66 C 17.83,78.08 15.33,76.48 11.29,76.32 6.26,76.13 2.26,77.83 0,79.09 Z m 0,4.95 a 22.9281,23.5469 0 0 1 11.29,-2.57 c 3.76,0.15 6.31,1.42 8.01,2.83 v 1.66 C 17.83,83.04 15.33,81.44 11.29,81.28 6.26,81.08 2.26,82.78 0,84.05 Z m 0,4.96 A 22.9281,23.5469 0 0 1 11.29,85 c 3.76,0.14 6.31,1.42 8.01,2.83 v 1.66 C 17.83,87.99 15.33,86.39 11.29,86.24 6.26,86.04 2.26,87.74 0,89.01 Z m 0,4.95 a 22.9281,23.5469 0 0 1 11.29,-2.57 c 3.76,0.15 6.31,1.42 8.01,2.83 v 1.66 C 17.83,92.95 15.33,91.35 11.29,91.19 6.26,90.99 2.26,92.69 0,93.96 Z M 44.63,67.75 A 22.9281,23.5469 -180 0 0 33.34,65.18 c -3.75,0.14 -6.31,1.42 -8.01,2.83 v 1.66 c 1.47,-1.5 3.97,-3.1 8.01,-3.26 5.03,-0.19 9.03,1.51 11.29,2.77 z m 0,4.95 A 22.9281,23.5469 -180 0 0 33.34,70.13 c -3.75,0.15 -6.31,1.42 -8.01,2.83 v 1.66 c 1.47,-1.49 3.97,-3.09 8.01,-3.25 5.03,-0.2 9.03,1.5 11.29,2.77 z m 0,4.96 A 22.9281,23.5469 -180 0 0 33.34,75.09 c -3.75,0.14 -6.31,1.42 -8.01,2.83 v 1.66 c 1.47,-1.5 3.97,-3.1 8.01,-3.26 5.03,-0.19 9.03,1.51 11.29,2.77 z m 0,4.95 A 22.9281,23.5469 -180 0 0 33.34,80.04 c -3.75,0.15 -6.31,1.42 -8.01,2.83 v 1.66 c 1.47,-1.49 3.97,-3.09 8.01,-3.25 5.03,-0.2 9.03,1.5 11.29,2.77 z m -3.62,3.44 C 39.13,85.56 35.76,84.9 33.34,85 c -3.75,0.14 -6.31,1.42 -8.01,2.83 v 1.66 c 1.47,-1.5 3.97,-3.1 8.01,-3.25 a 21.3177,21.8932 0 0 1 6.47,0.77 z"
   class="st5"
   id="path37"
   inkscape:connector-curvature="0"
   style="fill:#231f20;fill-opacity:0.4;stroke:none;stroke-width:12.23999977;stroke-linecap:butt" />
				</g>
				<g
   id="shape16645-15"
   transform="translate(4.82493,-8.11904)">
					<title
   id="title40">path16</title>
					<path
   d="M 9.65,57.06 C 4.73,57.77 1.18,60.11 0,60.98 v 32.66 c 1.99,-0.36 5.75,-0.96 9.65,-1.19 z m 25.33,-0.2 c -0.14,0 -0.29,-0.01 -0.43,-0.01 -6.53,0 -8.79,4.03 -9.22,4.95 v 32.64 c 2.04,-0.86 5.56,-2.09 9.13,-2.09 0.17,0 0.35,0.01 0.52,0.01 z"
   class="st4"
   id="path42"
   inkscape:connector-curvature="0"
   style="fill:#ffffff;fill-opacity:0.2;stroke:none;stroke-width:12.23999977;stroke-linecap:butt" />
				</g>
			</g>
		</g>
	</g>
</svg>

<?xml version="1.0" encoding="UTF-8" standalone="no"?>
<!DOCTYPE svg PUBLIC "-//W3C//DTD SVG 1.1//EN" "http://www.w3.org/Graphics/SVG/1.1/DTD/svg11.dtd">
<!-- Generated by Microsoft Visio, SVG Export Ebook.svg Page-1 -->
<svg xmlns="http://www.w3.org/2000/svg" xmlns:xlink="http://www.w3.org/1999/xlink" xmlns:ev="http://www.w3.org/2001/xml-events"
		width="1.1274in" height="1.31173in" viewBox="0 0 81.1729 94.4447" xml:space="preserve" color-interpolation-filters="sRGB"
		class="st6">
	<style type="text/css">
	<![CDATA[
		.st1 {fill:#0072c6;stroke:none;stroke-linecap:butt;stroke-width:12.24}
		.st2 {fill:#e5e5e5;stroke:none;stroke-linecap:butt;stroke-width:12.24}
		.st3 {fill:#7a7a7a;stroke:none;stroke-linecap:butt;stroke-width:12.24}
		.st4 {fill:#ffffff;fill-opacity:0.2;stroke:none;stroke-linecap:butt;stroke-width:12.24}
		.st5 {fill:#231f20;fill-opacity:0.4;stroke:none;stroke-linecap:butt;stroke-width:12.24}
		.st6 {fill:none;fill-rule:evenodd;font-size:12px;overflow:visible;stroke-linecap:square;stroke-miterlimit:3}
	]]>
	</style>

	<g>
		<title>Page-1</title>
		<g id="group16254-1" transform="translate(12.24,-34.0157)">
			<title>Ebook.16254</title>
			<g id="group16255-2">
				<title>g18</title>
				<g id="shape16256-3">
					<title>path4</title>
					<path d="M0 49.85 L0 90.73 A1.20623 1.23879 -180 0 0 1.21 91.97 L16.89 91.97 C21.66 91.97 23.32 93.28 23.87 93.99
								 C24.09 94.28 24.43 94.44 24.8 94.44 L31.9 94.44 C32.26 94.44 32.6 94.28 32.83 93.99 C33.38 93.28
								 35.03 91.97 39.81 91.97 L55.49 91.97 A1.20623 1.23879 -180 0 0 56.69 90.73 L56.69 49.85 A1.20623
								 1.23879 -180 0 0 55.49 48.61 L1.21 48.61 A1.20623 1.23879 -180 0 0 0 49.85 Z" class="st1"/>
				</g>
				<g id="shape16257-5" transform="translate(4.82493,-6.19396)">
					<title>path6</title>
					<rect x="0" y="58.5198" width="47.0431" height="35.9249" class="st2"/>
				</g>
				<g id="shape16258-7" transform="translate(2.41246,-5.91647)">
					<title>path8</title>
					<path d="M51.44 57.22 C51.2 57.01 45.52 52.17 36.96 52.17 C30.1 52.17 27.04 55.95 25.93 57.85 C24.83 55.95 21.76
								 52.17 14.91 52.17 C6.35 52.17 0.67 57.01 0.43 57.22 L0 57.59 L0 94.44 L51.87 94.44 L51.87 57.59
								 L51.44 57.22 Z" class="st3"/>
				</g>
				<g id="shape16259-9" transform="translate(3.6187,-6.19396)">
					<title>path10</title>
					<path d="M13.84 53.69 C5.54 53.69 0 58.45 0 58.45 L0 93.21 C0 93.21 7.44 91.66 13.92 91.66 C19.14 91.66 24.37
								 94.44 24.37 94.44 L24.37 59.62 C24.37 59.62 22.14 53.69 13.84 53.69 ZM35.62 53.69 C43.92 53.69 49.46
								 58.45 49.46 58.45 L49.46 93.21 C49.46 93.21 42.01 91.66 35.53 91.66 C30.31 91.66 25.09 94.44 25.09
								 94.44 L25.09 59.62 C25.09 59.62 27.31 53.69 35.62 53.69 Z" class="st2"/>
				</g>
				<g id="shape16260-11" transform="translate(4.82493,-8.11904)">
					<title>path12</title>
					<path d="M9.65 57.06 C4.73 57.77 1.18 60.11 0 60.98 L0 93.64 C1.99 93.28 5.75 92.68 9.65 92.45 L9.65 57.06 ZM34.98
								 56.86 C34.84 56.86 34.69 56.85 34.55 56.85 C28.02 56.85 25.76 60.88 25.33 61.8 L25.33 94.44 C27.37
								 93.58 30.89 92.35 34.46 92.35 C34.63 92.35 34.81 92.36 34.98 92.36 L34.98 56.86 Z" class="st4"/>
				</g>
				<g id="shape16261-13" transform="translate(6.03116,-12.6617)">
					<title>path14</title>
					<path d="M0 67.75 A22.9281 23.5469 0 0 1 11.29 65.18 C15.05 65.32 17.6 66.6 19.3 68.01 L19.3 69.67 C17.83 68.17
								 15.33 66.57 11.29 66.41 C6.26 66.22 2.26 67.92 0 69.18 L0 67.75 ZM0 72.7 A22.9281 23.5469 0 0 1
								 11.29 70.13 C15.05 70.28 17.6 71.55 19.3 72.96 L19.3 74.62 C17.83 73.13 15.33 71.53 11.29 71.37
								 C6.26 71.17 2.26 72.87 0 74.14 L0 72.7 ZM0 77.66 A22.9281 23.5469 0 0 1 11.29 75.09 C15.05 75.23
								 17.6 76.51 19.3 77.92 L19.3 79.58 C17.83 78.08 15.33 76.48 11.29 76.32 C6.26 76.13 2.26 77.83 0
								 79.09 L0 77.66 ZM-0 82.61 A22.9281 23.5469 0 0 1 11.29 80.04 C15.05 80.19 17.6 81.46 19.3 82.87
								 L19.3 84.53 C17.83 83.04 15.33 81.44 11.29 81.28 C6.26 81.08 2.26 82.78 0 84.05 L0 82.61 ZM-0 87.57
								 A22.9281 23.5469 0 0 1 11.29 85 C15.05 85.14 17.6 86.42 19.3 87.83 L19.3 89.49 C17.83 87.99 15.33
								 86.39 11.29 86.24 C6.26 86.04 2.26 87.74 0 89.01 L0 87.57 ZM-0 92.52 A22.9281 23.5469 0 0 1 11.29
								 89.95 C15.05 90.1 17.6 91.37 19.3 92.78 L19.3 94.44 C17.83 92.95 15.33 91.35 11.29 91.19 C6.26 90.99
								 2.26 92.69 0 93.96 L0 92.52 ZM44.63 67.75 A22.9281 23.5469 -180 0 0 33.34 65.18 C29.59 65.32 27.03
								 66.6 25.33 68.01 L25.33 69.67 C26.8 68.17 29.3 66.57 33.34 66.41 C38.37 66.22 42.37 67.92 44.63
								 69.18 L44.63 67.75 ZM44.63 72.7 A22.9281 23.5469 -180 0 0 33.34 70.13 C29.59 70.28 27.03 71.55 25.33
								 72.96 L25.33 74.62 C26.8 73.13 29.3 71.53 33.34 71.37 C38.37 71.17 42.37 72.87 44.63 74.14 L44.63
								 72.7 ZM44.63 77.66 A22.9281 23.5469 -180 0 0 33.34 75.09 C29.59 75.23 27.03 76.51 25.33 77.92 L25.33
								 79.58 C26.8 78.08 29.3 76.48 33.34 76.32 C38.37 76.13 42.37 77.83 44.63 79.09 L44.63 77.66 ZM44.63
								 82.61 A22.9281 23.5469 -180 0 0 33.34 80.04 C29.59 80.19 27.03 81.46 25.33 82.87 L25.33 84.53 C26.8
								 83.04 29.3 81.44 33.34 81.28 C38.37 81.08 42.37 82.78 44.63 84.05 L44.63 82.61 ZM41.01 86.05 C39.13
								 85.56 35.76 84.9 33.34 85 C29.59 85.14 27.03 86.42 25.33 87.83 L25.33 89.49 C26.8 87.99 29.3 86.39
								 33.34 86.24 A21.3177 21.8932 0 0 1 39.81 87.01 L41.01 86.05 Z" class="st5"/>
				</g>
				<g id="shape16262-15" transform="translate(4.82493,-8.11904)">
					<title>path16</title>
					<path d="M9.65 57.06 C4.73 57.77 1.18 60.11 0 60.98 L0 93.64 C1.99 93.28 5.75 92.68 9.65 92.45 L9.65 57.06 ZM34.98
								 56.86 C34.84 56.86 34.69 56.85 34.55 56.85 C28.02 56.85 25.76 60.88 25.33 61.8 L25.33 94.44 C27.37
								 93.58 30.89 92.35 34.46 92.35 C34.63 92.35 34.81 92.36 34.98 92.36 L34.98 56.86 Z" class="st4"/>
				</g>
			</g>
		</g>
	</g>
</svg>
